images/svg/icon-feature-experience.svg

<svg width="72" height="72" viewBox="0 0 72 72" fill="none" xmlns="http://www.w3.org/2000/svg">
<g id="icon-feature-experience">
<circle id="Oval Copy 4" cx="44" cy="44" r="28" fill="#2C6269"/>
<g id="Group 9">
<path id="Combined Shape" fill-rule="evenodd" clip-rule="evenodd" d="M14.4958 0H28.4958C34.1565 0 38.7625 4.606 38.7625 10.2666V10.2667V14.9333C40.8214 14.9333 42.4958 16.6078 42.4958 18.6667C42.4958 20.7256 40.8214 22.4 38.7625 22.4H38.55C38.2613 26.0674 36.1975 29.2747 33.1623 31.101V32.6667H36.1118C38.6029 32.6667 40.6292 34.693 40.6291 37.1842C40.6298 37.2541 40.6289 37.3238 40.6263 37.3934L40.7476 37.4014C44.9636 37.9624 48.0958 41.5427 48.0959 45.7333V56H46.2292V45.7334C46.2292 42.4733 43.7932 39.6891 40.561 39.258L40.1563 39.2323C40.0733 39.3986 39.9798 39.5606 39.8759 39.7172L35.0291 46.9513V56H33.1623V42.9565C31.5585 44.1449 29.6053 44.8 27.5625 44.8C25.5193 44.8 23.5662 44.1451 21.9625 42.9571V56H20.0958V46.9507L15.251 39.7198C15.1464 39.5623 15.0523 39.3996 14.9689 39.2326L14.5023 39.2634C11.3318 39.689 8.89576 42.4732 8.89576 45.7333V56H7.02905V45.7333C7.02905 41.5426 10.1613 37.9633 14.3165 37.407L14.4982 37.3946C14.4954 37.3215 14.4943 37.2481 14.495 37.1746C14.495 34.6929 16.5212 32.6666 19.0123 32.6666H21.9625V31.1315C19.2932 29.5509 17.3029 26.8626 16.72 23.577C16.6621 23.2503 16.6183 22.9208 16.5903 22.5904L16.5756 22.4H16.3625C14.3035 22.4 12.6292 20.7255 12.6292 18.6666C12.6292 16.6077 14.3035 14.9333 16.3625 14.9333H16.3639L16.3626 10.5691C14.1571 9.51877 12.6292 7.26788 12.6292 4.66659C12.6292 4.15144 13.0473 3.7333 13.5625 3.7333H14.0636C13.7445 3.18358 13.5625 2.54603 13.5625 1.86659V0.933297C13.5625 0.418141 13.9806 0 14.4958 0ZM33.1623 35.672V34.5334H36.1118C37.5733 34.5334 38.7625 35.7234 38.7625 37.1934C38.768 37.7264 38.615 38.2415 38.3229 38.6811L35.0291 43.5973V37.5387C35.0292 37.0226 34.6119 36.6053 34.0958 36.6053H33.9371C33.4891 36.5287 33.1586 36.1377 33.1623 35.672ZM29.5133 32.4996C30.1282 32.3806 30.7236 32.2126 31.2956 32V35.6636C31.2863 36.8807 32.0563 37.9363 33.1623 38.3254V40.4479C31.7314 42.032 29.7086 42.9333 27.5625 42.9333C25.4163 42.9333 23.3935 42.0319 21.9625 40.4494V38.3264C23.0676 37.9373 23.8375 36.8826 23.8292 35.672V32.0136C25.0092 32.4416 26.2729 32.6723 27.5728 32.6723C28.2121 32.6723 28.8618 32.6153 29.5133 32.4996ZM20.0958 37.5387V43.5959L16.804 38.6829C16.51 38.2414 16.357 37.7253 16.3626 37.1839C16.3625 35.7224 17.5515 34.5333 19.0132 34.5333H21.9625V35.6786C21.9653 36.1377 21.6358 36.5288 21.1878 36.6054H21.0291C20.5139 36.6054 20.0958 37.0226 20.0958 37.5387ZM35.1286 11.1999H36.896L36.8969 14.0611C36.1833 13.4162 35.4004 12.4564 35.1286 11.1999ZM33.2295 11.1999C33.6437 14.0413 35.8703 15.7542 36.8976 16.4045L36.8986 19.5273L36.7016 22.0715C36.4422 26.3238 33.3398 29.8584 29.1725 30.6647C24.2034 31.5467 19.4396 28.2213 18.5567 23.2503C18.5092 22.9796 18.4727 22.7071 18.4503 22.4401L18.2292 19.6V16.4032C19.2574 15.752 21.4814 14.0394 21.8953 11.1999H33.2295ZM16.3625 16.8H16.3644L16.3653 19.6719L16.4317 20.5333H16.3625C15.333 20.5333 14.4958 19.6961 14.4958 18.6666C14.4958 17.6372 15.333 16.8 16.3625 16.8ZM19.9963 11.1999C19.7247 12.4555 18.9424 13.4148 18.2292 14.0597V11.1334C18.534 11.1772 18.8457 11.1999 19.1625 11.1999H19.9963ZM38.7625 19.6V16.8C39.7919 16.8 40.6292 17.6372 40.6292 18.6667C40.6292 19.6961 39.792 20.5334 38.7625 20.5334H38.6912L38.7625 19.6ZM14.59 5.6C15.0232 7.72702 16.9094 9.3333 19.1625 9.3333V9.33341H36.8435C36.3778 5.13898 32.8125 1.8667 28.4958 1.8667H15.4291C15.4291 2.89625 16.2663 3.73341 17.2958 3.73341C17.8109 3.73341 18.2291 4.15155 18.2291 4.6667C18.2291 5.18186 17.8109 5.6 17.2958 5.6H14.59ZM23.8292 17.7333C23.8292 18.7642 22.9934 19.6 21.9625 19.6C20.9315 19.6 20.0958 18.7642 20.0958 17.7333C20.0958 16.7023 20.9315 15.8666 21.9625 15.8666C22.9934 15.8666 23.8292 16.7023 23.8292 17.7333ZM33.1625 19.6C34.1934 19.6 35.0292 18.7642 35.0292 17.7333C35.0292 16.7023 34.1934 15.8666 33.1625 15.8666C32.1315 15.8666 31.2958 16.7023 31.2958 17.7333C31.2958 18.7642 32.1315 19.6 33.1625 19.6ZM27.0743 20.5333L28.4286 17.1472L26.6954 16.4537L24.8287 21.1204C24.7139 21.4079 24.7494 21.7346 24.923 21.9903C25.0966 22.246 25.386 22.4 25.6959 22.4H28.4959V20.5333H27.0743ZM25.8545 24.2667C27.3076 24.2657 28.674 23.7001 29.7026 22.6726L31.0223 23.9933C29.6419 25.3727 27.806 26.1324 25.8545 26.1334H25.6958V24.2667H25.8545ZM17.2959 47.6C17.2959 47.0839 17.714 46.6667 18.2292 46.6667C18.7443 46.6667 19.1625 47.0839 19.1625 47.6V53.2C19.1625 53.7161 18.7443 54.1333 18.2292 54.1333C17.714 54.1333 17.2959 53.7161 17.2959 53.2V47.6ZM35.9625 47.6C35.9625 47.0839 36.3796 46.6667 36.8958 46.6667C37.4119 46.6667 37.8292 47.0839 37.8291 47.6V53.2C37.8291 53.7161 37.4119 54.1333 36.8958 54.1333C36.3796 54.1333 35.9625 53.7161 35.9625 53.2V47.6Z" fill="#79C8C7"/>
</g>
</g>
</svg>

<svg xmlns="http://www.w3.org/2000/svg" width="72" height="72" fill="none"><circle cx="44" cy="44" r="28" fill="#2C6269"/><path fill="#79C8C7" fill-rule="evenodd" d="M14.496 0h14c5.66 0 10.267 4.606 10.267 10.267v4.666a3.737 3.737 0 0 1 3.733 3.734 3.737 3.737 0 0 1-3.733 3.733h-.213a11.184 11.184 0 0 1-5.388 8.701v1.566h2.95a4.522 4.522 0 0 1 4.514 4.726l.122.008c4.216.561 7.348 4.142 7.348 8.332V56h-1.867V45.733a6.553 6.553 0 0 0-5.668-6.475l-.405-.026a4.562 4.562 0 0 1-.28.485l-4.847 7.234V56h-1.867V42.956a9.388 9.388 0 0 1-5.6 1.844 9.39 9.39 0 0 1-5.6-1.843V56h-1.866v-9.05l-4.845-7.23a4.576 4.576 0 0 1-.282-.487l-.467.03c-3.17.426-5.606 3.21-5.606 6.47V56H7.029V45.733c0-4.19 3.132-7.77 7.287-8.326l.182-.012a4.52 4.52 0 0 1 4.514-4.728h2.95V31.13a10.993 10.993 0 0 1-5.372-8.54l-.014-.191h-.213a3.737 3.737 0 0 1-3.734-3.733 3.737 3.737 0 0 1 3.734-3.734V10.57a6.541 6.541 0 0 1-3.734-5.902c0-.516.418-.934.934-.934h.5a3.706 3.706 0 0 1-.5-1.866V.933c0-.515.418-.933.933-.933Zm18.666 35.672v-1.139h2.95c1.461 0 2.65 1.19 2.65 2.66a2.63 2.63 0 0 1-.44 1.488l-3.293 4.916V37.54a.932.932 0 0 0-.933-.934h-.159a.935.935 0 0 1-.775-.933ZM29.513 32.5c.615-.12 1.21-.287 1.783-.5v3.664a2.798 2.798 0 0 0 1.866 2.661v2.123a7.525 7.525 0 0 1-5.6 2.485 7.53 7.53 0 0 1-5.6-2.484v-2.123a2.797 2.797 0 0 0 1.867-2.654v-3.658a10.97 10.97 0 0 0 5.684.486Zm-9.417 5.039v6.057l-3.292-4.913a2.638 2.638 0 0 1-.441-1.5 2.653 2.653 0 0 1 2.65-2.65h2.95v1.146a.934.934 0 0 1-.775.926h-.159a.933.933 0 0 0-.933.934Zm15.033-26.34h1.767v2.862c-.713-.645-1.496-1.605-1.767-2.861Zm-1.9 0c.415 2.842 2.641 4.555 3.669 5.205v3.123l-.196 2.544a9.328 9.328 0 0 1-7.53 8.594c-4.969.882-9.732-2.444-10.615-7.415a9.125 9.125 0 0 1-.107-.81l-.22-2.84v-3.197c1.027-.651 3.251-2.364 3.665-5.203H33.23ZM16.364 16.8h.001l.001 2.872.067.861h-.07a1.869 1.869 0 0 1-1.866-1.866c0-1.03.837-1.867 1.867-1.867Zm3.633-5.6c-.271 1.256-1.054 2.215-1.767 2.86v-2.927c.305.044.617.067.934.067h.833Zm18.767 8.4v-2.8a1.867 1.867 0 0 1 0 3.733h-.072l.072-.933ZM14.59 5.6a4.675 4.675 0 0 0 4.573 3.733h17.68c-.465-4.194-4.03-7.466-8.347-7.466H15.429c0 1.03.837 1.866 1.867 1.866a.934.934 0 0 1 0 1.867H14.59Zm9.24 12.133a1.867 1.867 0 1 1-3.734 0 1.867 1.867 0 0 1 3.733 0Zm9.333 1.867a1.867 1.867 0 1 0 0-3.734 1.867 1.867 0 0 0 0 3.734Zm-6.089.933 1.355-3.386-1.734-.693-1.866 4.666a.934.934 0 0 0 .867 1.28h2.8v-1.867h-1.422Zm-1.22 3.734a5.414 5.414 0 0 0 3.849-1.594l1.32 1.32a7.27 7.27 0 0 1-5.168 2.14h-.16v-1.866h.16ZM17.297 47.6a.933.933 0 1 1 1.867 0v5.6a.933.933 0 1 1-1.867 0v-5.6Zm18.666 0a.932.932 0 1 1 1.867 0v5.6a.932.932 0 1 1-1.867 0v-5.6Z" clip-rule="evenodd"/></svg>
